src/assets/images/footer-social-1.svg

<svg width="30" height="30" viewBox="0 0 30 30" fill="none" xmlns="http://www.w3.org/2000/svg">
<g clip-path="url(#clip0_342_898)">
<path d="M15 28.4612C22.4346 28.4612 28.4615 22.4342 28.4615 14.9996C28.4615 7.56502 22.4346 1.53809 15 1.53809C7.56539 1.53809 1.53845 7.56502 1.53845 14.9996C1.53845 22.4342 7.56539 28.4612 15 28.4612Z" stroke="white" stroke-width="2.30769"/>
<path d="M14.9985 1.80762C7.89846 1.80762 2.14539 7.71531 2.14539 14.9999C2.14539 22.2853 7.90154 28.1922 14.9992 28.1922C22.0985 28.1922 27.8515 22.2853 27.8515 14.9999C27.8515 7.71531 22.0977 1.80762 14.9985 1.80762ZM18.8569 26.8492C18.2377 26.9722 18.0192 26.5822 18.0192 26.2492C18.0192 25.8392 18.0331 24.493 18.0331 22.8238C18.0331 21.6584 17.6423 20.8961 17.2062 20.5084C19.92 20.2015 22.7662 19.1438 22.7662 14.3484C22.7662 12.9868 22.2946 11.8692 21.5138 10.9968C21.6377 10.6815 22.0577 9.41377 21.3931 7.693C21.3931 7.693 20.3723 7.35685 18.0469 8.97454C17.0545 8.69648 16.0291 8.55416 14.9985 8.55146C13.968 8.55252 12.9426 8.69487 11.9508 8.97454C9.62462 7.35916 8.60154 7.693 8.60154 7.693C7.94 9.41377 8.35692 10.6815 8.48308 10.9968C7.70539 11.8692 7.23154 12.9838 7.23154 14.3484C7.23154 19.133 10.0746 20.2045 12.7777 20.5192C12.43 20.8315 12.1154 21.3807 12.0046 22.1884C11.31 22.5061 9.54692 23.0576 8.46154 21.1499C8.46154 21.1499 7.81846 19.9515 6.59615 19.8622C6.59615 19.8622 5.40615 19.8468 6.51231 20.6215C6.51231 20.6215 7.31231 21.0038 7.86385 22.4468C7.86385 22.4468 8.58 24.8753 11.9669 24.1215C11.9723 25.1638 11.9831 25.9499 11.9831 26.2461C11.9831 26.5768 11.7623 26.9615 11.1515 26.8461C6.31077 25.1961 2.82308 20.5168 2.82308 14.9999C2.82077 8.10762 8.27231 2.51839 14.9977 2.51839C21.7231 2.51839 27.1746 8.10762 27.1746 15.0053C27.1746 20.5192 23.6892 25.1961 18.8569 26.8492Z" fill="white"/>
</g>
<defs>
<clipPath id="clip0_342_898">
<rect width="30" height="30" fill="white"/>
</clipPath>
</defs>
</svg>

<svg xmlns="http://www.w3.org/2000/svg" width="30" height="30" fill="none"><g clip-path="url(#a)"><path stroke="#fff" stroke-width="2.308" d="M15 28.461c7.435 0 13.462-6.027 13.462-13.461 0-7.435-6.027-13.462-13.462-13.462S1.538 7.565 1.538 15C1.538 22.434 7.565 28.46 15 28.46Z"/><path fill="#fff" d="M14.998 1.808C7.899 1.808 2.146 7.715 2.146 15S7.902 28.192 15 28.192c7.1 0 12.853-5.907 12.853-13.192S22.098 1.808 14.998 1.808Zm3.859 25.041c-.62.123-.838-.267-.838-.6 0-.41.014-1.756.014-3.425 0-1.166-.39-1.928-.827-2.316 2.714-.306 5.56-1.364 5.56-6.16 0-1.361-.471-2.479-1.252-3.351.124-.316.544-1.583-.12-3.304 0 0-1.022-.336-3.347 1.282a11.41 11.41 0 0 0-3.049-.424c-1.03.002-2.055.144-3.047.424C9.625 7.359 8.6 7.693 8.6 7.693c-.661 1.72-.244 2.989-.118 3.304-.778.872-1.251 1.987-1.251 3.351 0 4.785 2.843 5.856 5.546 6.171-.348.313-.663.862-.773 1.67-.695.317-2.458.869-3.543-1.04 0 0-.644-1.198-1.866-1.287 0 0-1.19-.015-.084.76 0 0 .8.382 1.352 1.825 0 0 .716 2.428 4.103 1.675.005 1.042.016 1.828.016 2.124 0 .33-.22.716-.832.6-4.84-1.65-8.328-6.33-8.328-11.846-.002-6.892 5.45-12.482 12.175-12.482 6.725 0 12.177 5.59 12.177 12.487 0 5.514-3.486 10.191-8.318 11.844Z"/></g><defs><clipPath id="a"><path fill="#fff" d="M0 0h30v30H0z"/></clipPath></defs></svg>
